X:264
T: WARUM SIND DIE THRAENEN UNTERM MOND SO VIEL
N: B0743
O: Europa, Mitteleuropa, Deutschland
R: Moral - Lied, Trost, religioes
M: 4/4
L: 1/8
K: G
 | G2G2F2F2 | E4D4
d2G2F2G2 | A4z4
B2B2^c2c2 | d4A4
D2DEF2E2 | D4z4
A2A2B2B2 | c4A4
d2d2c2B2 | A4z4
G2G2F2F2 | E4D4
d2GAB2A2 | G4z4

